dist/svg/static/dealer-request-large.svg

<svg xmlns="http://www.w3.org/2000/svg" width="48" height="48" viewBox="0 0 48 48"><g fill="none" stroke="currentColor"><path d="M10 28.5H3.5m6.5 11H6.5a3 3 0 0 1-3-3v-34h15.936V19" stroke-miterlimit="10"/><path d="M12.502 21.5h28a3 3 0 0 1 3 3v20h-28a3 3 0 0 1-3-3v-20z"/><path d="M17.697 28.954l10.36 7.912 10.452-7.953"/></g></svg>

<?xml version="1.0" encoding="UTF-8" standalone="no"?>
<svg width="48px" height="48px" viewBox="0 0 48 48" version="1.1" xmlns="http://www.w3.org/2000/svg" xmlns:xlink="http://www.w3.org/1999/xlink">
    <!-- Generator: sketchtool 46.2 (44496) - http://www.bohemiancoding.com/sketch -->
    <title>dealer-request-large</title>
    <desc>Created with sketchtool.</desc>
    <defs></defs>
    <g id="icons-published" stroke="none" stroke-width="1" fill="none" fill-rule="evenodd">
        <g id="briefing" transform="translate(-1728.000000, -410.000000)"></g>
        <g id="dealer-request-large" stroke="#000000">
            <path d="M10,28.5 L3.5,28.5 M10,39.5 L6.5,39.5 C4.8,39.5 3.5,38.2 3.5,36.5 L3.5,2.5 L19.4,2.5 L19.4,19" id="Shape"></path>
            <path d="M12.5,21.5 L40.5,21.5 C42.2,21.5 43.5,22.8 43.5,24.5 L43.5,44.5 L15.5,44.5 C13.8,44.5 12.5,43.2 12.5,41.5 C12.5,41.5 12.5,21.5 12.5,21.5 Z" id="Shape"></path>
            <polyline id="Shape" points="17.7 29 28.1 36.9 38.6 28.9"></polyline>
        </g>
    </g>
</svg>
